svgs/duotone/shelves.svg

<svg xmlns="http://www.w3.org/2000/svg" viewBox="0 0 640 512"><!-- Font Awesome Pro 6.0.0-alpha2 by @fontawesome - https://fontawesome.com License - https://fontawesome.com/license (Commercial License) --><defs><style>.fa-secondary{opacity:.4}</style></defs><path d="M608 0C590.4 0 576 14.398 576 32V160H64V32C64 14.398 49.6 0 32 0S0 14.398 0 32V512H64V480H576V512H640V32C640 14.398 625.6 0 608 0ZM576 416H64V224H576V416Z" class="fa-secondary"/><path d="M368 256H272C263.25 256 256 263.25 256 272V368C256 376.75 263.25 384 272 384H368C376.75 384 384 376.75 384 368V272C384 263.25 376.75 256 368 256ZM208 256H112C103.25 256 96 263.25 96 272V368C96 376.75 103.25 384 112 384H208C216.75 384 224 376.75 224 368V272C224 263.25 216.75 256 208 256ZM464 0H368C359.25 0 352 7.25 352 16V112C352 120.75 359.25 128 368 128H464C472.75 128 480 120.75 480 112V16C480 7.25 472.75 0 464 0Z" class="fa-primary"/></svg>

<svg xmlns="http://www.w3.org/2000/svg" viewBox="0 0 640 512"><!--! Font Awesome Pro 6.3.0 by @fontawesome - https://fontawesome.com License - https://fontawesome.com/license (Commercial License) Copyright 2023 Fonticons, Inc. --><defs><style>.fa-secondary{opacity:.4}</style></defs><path class="fa-primary" d="M368 256h-96C263.3 256 256 263.3 256 272v96C256 376.8 263.3 384 272 384h96c8.75 0 16-7.25 16-16v-96C384 263.3 376.8 256 368 256zM208 256h-96C103.3 256 96 263.3 96 272v96C96 376.8 103.3 384 112 384h96C216.8 384 224 376.8 224 368v-96C224 263.3 216.8 256 208 256zM464 0h-96C359.3 0 352 7.25 352 16v96C352 120.8 359.3 128 368 128h96C472.8 128 480 120.8 480 112v-96C480 7.25 472.8 0 464 0z"/><path class="fa-secondary" d="M608 0c-17.6 0-32 14.4-32 31.1V160H64V31.1C64 14.4 49.6 0 32 0S0 14.4 0 31.1v480h64v-32h512v32h64v-480C640 14.4 625.6 0 608 0zM576 416H64V224h512V416z"/></svg>
